X:1
T:Sarabande
C:Joseph Bodin de Boismorter
R:Sarabande
Z:Transcribed by Frank Nordberg - http://www.musicaviva.com
F:http://abc.musicaviva.com/tunes/boismorter-joseph-bodin-de/boismorter-sar01.abc
V:1 Program 1 73 %Flute
V:2 Program 1 72 %Piccolo
M:3/4
L:1/8
K:A
V:1
A2(cd)(eB)|c2(B<A) (cd)|e2(ge)(dc)|(TB3A)A2|A2(cd)(eB)|c2(B<A) (cd)|
V:2
z6|A2(cd)(eB)|(cA)(dc)(BA)|(TG3A)A2|z6|A2(cd)(eB)|
%
V:1
e2(fe)(dc)|B6::e2(ga)(bf)|g2 (f<e) (ga)|b2(c'b)(ag)|f4b2|
V:2
(cA)(dc)(BA)|G6::z6|e2(ga)(bf)|(ge)(ag)(fe)|^d2(c<B)z2|
%
V:1
b2(ag)(fe)|^d2(c<B) (a2-|ag)(Tf3e)|e6|c2d2e2|e2(dc)d2-|
V:2
z2z2b2|b2(ag)(fe)|(^de)(e3d)|(e2B2G2|A2)B2c2|F4B2|
%
V:1
d2(cd)e2|B4e2|e2(dc)(BA)|G2 (F<E) (d2-|dc)(TB3A)|A6:|
V:2
E2(AB)c2|(G2E2)a2|z2z2e2|e2(dc)(BA)|(GA)(A3G)|A6:|
W:
W:
W:  From Musica Viva - http://www.musicaviva.com
W:  the Internet center for free sheet music downloads.

